X: 520
T: Colonel Fraser
C: anon.
O: Ireland
B: Francis O'Neill: "The Dance Music of Ireland" (1907) no. 520
R: Reel
Z: Transcribed by Frank Nordberg - http://www.musicaviva.com
F: http://www.musicaviva.com/abc/tunes/ireland/oneill-1001/oneill-1001-052
0.abc
M: C|
L: 1/8
K: G
(dc)|"^segno"BGAF D>G ({A}(3G)FG|AFcF dFcF|BGAF DGGg|[1fdcA d2(cA):|[2(3f
ed cA (BG)G2||dggf g2(bg)|fdcB AB({d}c)A|
Gg({a}g)f gbag|fdcA (BG)G2|(gfg).e d2dc|(3Bcd (BG) ABcA|GBAc (3Bcd (eg)|f
dcA (BG)G2||B>d (3ddd (BG)dG|
AFcf (3ABc (AF)|B>c (3ddd (BG)dG|cAFG (AG)G2|B>d (3ddd (BG)dG|AFcF (3ABc
(AF)|(3GAB (3ABc (3Bcd (eg)|fdcA BGG2||
(3BcB GB (3BdB GB|(3ABA FA (3AcA FA|(3 BcB GB (3BdB GB|({d}c)AFG (AG)G2|(
3BcB GB GBGB|(3ABA FA FAFA|GBAc (3Bcd eg|fdcA d2 cA "^segno" ||
W:
W:
W: From Musica Viva - http://www.musicaviva.com
W: the Internet center for free sheet music downloads.


